X:1
T: The Drummond Lasses
C:
R:Reel
Q: 232
K:G
M:4/4
L:1/8
|:G2 BG dG BG|G2 BG EA AF|G2 BG dG Bd|cA BG EG G2|
G2 BG dG BG|G2 BG EA AF|G2 Bc de ge|dB AG EG G2|
gf ed ((3Bcd) eg|gf ed ea af|gf ed Bc dB|cA BG EG Gd|
gf ed ((3Bcd) eg|gf ed ea a2|bg af ge dB|cA BG EG G2:|
